**kern	**kern	**dynam
*part1	*part1	*part1
*staff2	*staff1	*
*I"Piano	*	*
*clefF4	*clefG2	*
*k[f#c#g#d#a#e#]	*k[f#c#g#d#a#e#]	*
=1	=1	=1
(4.AA#	8.c#L 8.f#	p <
.	16c#K 16f#	.
.	8c#J 8f#	.
=	=	=
4.BB	8.G#L 8.d# 8.f#	[ >
.	16G#K 16d# 16f#	.
.	8G#J 8d# 8f#	.
=	=	=
4.C#)	8.BL 8.e#	]
.	16BK 16e#	.
.	8BJ 8e#	.
=	=	=
*	*^	*
(4.C#	(8.A#L 8.f#	4.f#	.
.	16BK 16g#	.	.
.	8c#J) 8a#	.	.
=	=	=	=
4.CC#	(8.G#L 8.e#	4.c#	.
.	16A#K 16f#	.	.
.	8BJ) 8g#	.	.
=	=	=	=
4FF#)	4A# 4f#	4A#	.
8r	8r	8ryy	.
*	*v	*v	*
=	=	=
*^	*	*
8.G#L	([4.BB	8.f#L 8.g#	p <
16A#K	.	16f#K 16g#	.
8BJ	.	8f#J 8g#	.
=	=	=	=
8.e#L	4.BB]	8.f#L 8.g#	[ >
16d#K	.	16f#K 16g#	.
8BJ	.	8f#J 8g#	.
=	=	=	=
8A#L	4.C#	(8c#L 8f#	]
8B	.	8c#:) 8g#: 8cc#:	.
8G#J	.	(8c#J 8e#	.
*v	*v	*	*
=	=	=
*-	*-	*-
!!!system-decoration: {(s1,s2)}
